X:1
T:Title
%%score { ( 1 4 5 ) | ( 2 3 ) }
L:1/8
M:4/4
K:Bb
V:1 treble nm="Grand Piano"
V:4 treble 
V:5 treble 
V:2 bass 
V:3 bass 
V:1
 z8[Q:1/4=100] | [DFd]>[FBd] [DFAd]>[Gd] [DFd]2 [Ec]2 | [DFB]>[GB] [DFB]>[EB] [B,DB]2 [B,FA]2 | %3
 [EG]>G G>A [EGB]2 [EBd]2 | [FBd]4 z4 | [DFd]>[FBd] [DFAd]>[Gd] [DFd]2 [Ac]2 | %6
[M:5/4] [DGB]>B B>B B3 [EGe]3 |[M:4/4] [DFBd]>[DFBd] [C=EGc]>[B,CEG] [FA]2 [B,EGB]2 | %8
[M:7/8] z2 C2 [Acf]3 |[M:1/4] F2 |[M:4/4] [Fd]>[Fd] [Fd]>[Ec] [DB]2 [DF]2 | [EG]4 [GB]4 | %12
 [FA]4 c4 | z2 c2 z4 | [Fd]>[Fd] [Fd]>[Ec] [DB]2 [DF]2 | %15
[M:17/16] z/ z B,<B,B,/[Ge]/-[Ge]-<[Ge][Gc]-<[Gc] |[M:4/4] [Ff]>[Ge] [Fd]>[DB] [=Ed]2 [_Ec]2 | %17
[M:3/4] B2- [EB-]2 [DB]2 |] %18
V:2
 z4 z2 F2 | z z/ D/ z z/ [DF]/ [F,,F,]2 [F,A,]2 | z z/ E/ z z/ C/ B,,,2 D,2 | %3
 z z/ E/ E>E C,,2 [C,B,]2 | [F,,F,]2 F,2 F,,2 F,2 | z z/ D/ z z/ [DF]/ [F,,F,]2 [^F,A,E]2 | %6
[M:5/4] z z/[K:treble] [DG]/ [G,B,DG]>[K:bass][F,_A,D] [E,G,E]3 C,,3 | %7
[M:4/4] [D,,D,]>[F,,F,] [G,,G,]>G, C,,2 C,2 |[M:7/8] [F,,F,]2 [F,A,]2 [F,A,E]3 |[M:1/4] [F,A,]2 | %10
[M:4/4] [B,,B,]2 [B,,B,]2 [B,,B,]2 [B,,B,]2 | [E,B,]>E, G,>G, B,2 B,2 | F,>F, F,>F, F2- [E,F]2 | %13
 D,>D, [C,A,]>C, [B,,B,]2 [B,,B,]2 | [B,,B,]2 [B,,B,]2 [B,,B,]2 [B,,B,]2 | %15
[M:17/16] [E,B,]>E,G,>G,B,B,>[E,B,]-[E,B,]3/2 | %16
[M:4/4] [D,B,]>[E,B,] [F,B,]>[G,B,] [C,B,]2 [F,A,]2 |[M:3/4] z2 G,2 F,2 |] %18
V:3
 x8 | B,,,2 [B,,B,]2 z4 | B,,,2 B,,2 z4 | E,,2 [E,B,]2 z4 | x8 | B,,2 [B,,B,]2 z4 | %6
[M:5/4] [G,,G,]2[K:treble] z2[K:bass] z2 z4 |[M:4/4] x8 |[M:7/8] x7 |[M:1/4] x2 |[M:4/4] x8 | x8 | %12
 z4 [F,A,]2 z2 | x8 | x8 |[M:17/16] x17/2 |[M:4/4] x8 |[M:3/4] B,,6 |] %18
V:4
 x8 | x8 | z2 B,2 z4 | x8 | z2 [B,D]2 [EAc]2 [A,F]2 | x8 |[M:5/4] x10 |[M:4/4] x8 | %8
[M:7/8] [EAc]- [EAc]3 z z2 |[M:1/4] x2 |[M:4/4] x8 | z z/ B,/ B,>B, E2 E2 | E>D C>B, z2 A,2 | %13
 [F-B]2 F2 z4 | x8 |[M:17/16] [EG]/-[EG]/-[EG]/-[EG]/-[EG]-<[EG] z/ z/ z/ z/ z/ z/ z/ z | %16
[M:4/4] x8 |[M:3/4] [B,D]2 z2 z2 |] %18
V:5
 x8 | x8 | x8 | x8 | x8 | x8 |[M:5/4] x10 |[M:4/4] x8 |[M:7/8] x7 |[M:1/4] x2 |[M:4/4] x8 | x8 | %12
 x8 | B,>B, z z/ A,/ [Fd]2 [DF]2 | x8 |[M:17/16] x17/2 |[M:4/4] x8 |[M:3/4] x6 |] %18

